X:1
T:Eu sei que vou te amar transcribed by Colleen Kitchen
T:Jobim
T:de Moraes
T:1959
L:1/8
M:2/2
K:D
V:1 treble 
%%MIDI program 0
%%MIDI control 7 100
%%MIDI control 10 64
V:1
 z4 z2 z A |:"Dmaj7" cccc c4 |"Fdim" z3 B cdcB |"Em7" dddd d4 |"Asus4" z3 c d"A7"edc | %5
w: Eu|sei que vou te͜~a mar|por to- da͜~a mi- nha|vi- da vou te͜~a- mar|Em ca- da des- pe-|
w: |sei que vou cho- rar|a ca- da͜~au- sên- cia|tu- a͜~eu vou cho- rar|mas ca- da vol- ta|
"Am7" eeee e4 |"D+7" z3 d efed |1"Gmaj7" ffff f2 ef- |"Gm6" f4 z2 g2 |"F#m7" a6 d2 |"Fdim" c6 B2 | %11
w: di- da͜~eu vou te͜~a mar,|des- es- per- a- da|men- te͜~eu sei que vou te͜~a mar,|* e|ca- da|ver- so|
w: tu- a͜~há de͜~a- pa- gar|o que͜~es- ta͜~au- sên- cia|||||
"Em7" g6 c2 |"Asus4" B6"A7b9" A2 |"F#m7b5" f6 a2 |"B7b9" g6 f2 |"Bm6" eeed e3 e | %16
w: meu se-|rá pra|te di-|zer que͜~eu|sei que vou te͜~a mar por|
w: |||||
"Bbm6" =ffff f f2 A :|2"Gmaj7" ffff f4 |"Gm6" z4 z2 z a |"F#m7" c'c'c'c' c'4 |"Fdim" z3 b c'd'c'b | %21
w: to- da mi- nha vi- da eu|tu- a me cau- sou,|eu|sei que vou so- frer|A͜~e- ter- na des- ven-|
w: |||||
"F#m7b5" aaaa a4 |"B7b9" z3 f gagf |"E9" dddd d4 |"Asus4" z3 c dedc |"Bb9" e4"D69" d4 |] %26
w: tu- ra de vi- ver|a͜~es- pe- ra de vi-|ver ao la- do teu|por to- da͜~a mi- nha|vi- da.|
w: |||||

